X: 16
T:Arkansas Traveler
M:4/4
L:1/8
C:
S:AABB form
R:Key of D
K:D
|:A2|dfedB2B2|A2A2d2d2|e2e2f2f2|efecB2A2|!dfedB2B2|A2A2d2d2|dcdABdAG|F2E
2D2:|!
|:fg|agfagfeg|fedfe2A2|d2d2e2e2|f2f2e2fg|!agfagfeg|fedfe2A2|dcdABdAG|F2E
2D2:|
